X:1
T:Gonna Keep My Skillet Greasy
M:4/4
L:1/4
K:F
 F F| A/2 A3/2 G F| A2 F F| A c/2c/2 A G| F2 F F| A c A/2 G3/2| F C D F|\
 A2 ^G/4- A3/4- A| ^G/4- A3/4- A F F| A c A/2 G3/2| F C D F| F2||

